svg/black/pivx.svg

<svg xmlns="http://www.w3.org/2000/svg" width="32" height="32" viewBox="0 0 32 32">
  <path d="M16,32 C7.163444,32 0,24.836556 0,16 C0,7.163444 7.163444,0 16,0 C24.836556,0 32,7.163444 32,16 C32,24.836556 24.836556,32 16,32 Z M17.1534697,11.7413819 L10,11.7413819 L10,13.9963255 L17.1534697,13.9963255 L17.1534697,11.7413819 Z M23,12.8312751 L22.9806412,12.3312751 C22.7550929,9.41167079 20.5473056,7.5 17.4591469,7.5 L11.0490959,7.5 L11.0490959,9.93212086 L15.5932561,9.91798379 L17.2807944,9.91798621 C19.200532,9.91798621 20.3501623,10.9936175 20.3501623,12.8312751 C20.3501623,14.7039707 19.1898386,15.807296 17.2552934,15.807296 L11.3305342,15.807296 L11.3305342,24.5 L13.929679,24.5 L13.929679,18.2255853 L17.4722838,18.2255853 C20.7098538,18.2255853 23,16.039374 23,12.8312751 Z"/>
</svg>

<svg xmlns="http://www.w3.org/2000/svg" width="32" height="32"><path d="M16 32C7.163 32 0 24.837 0 16S7.163 0 16 0s16 7.163 16 16-7.163 16-16 16zm1.153-20.259H10v2.255h7.153v-2.255zM23 12.831l-.02-.5c-.225-2.92-2.433-4.831-5.52-4.831h-6.41v2.432l4.543-.014h1.688c1.92 0 3.07 1.076 3.07 2.913 0 1.873-1.161 2.976-3.096 2.976h-5.924V24.5h2.599v-6.274h3.542c3.238 0 5.528-2.187 5.528-5.395z"/></svg>
